X: 112
T: Mrs Boyd of Pinkie's Strathspey
C: attr. John French (1753-1803)
R: strathspey
B: "John French Collection", John French ed. p.11 #2
S: http://www.heallan.com/french.asp
Z: 2012 John Chambers <jc:trillian.mit.edu>
M: C
L: 1/8
K: Gm
B |\
(G/A/B/c/) dG (B/c/d)(GB) | Afcf AFcA | (G/A/B/c/) dg fcdB | AFcA BG-G :|
A |\
(B/c/d/e/ f)d bdfd | cfAc (FA/B/c)A | (B/c/d/e/ f)b fBdB | cFAc d(GGA) |
Bbfd bdBd | cfaf AcFA | BGdB AFcA | BGD^F GG,-G, |]

%%sep 2 1 500
%%sep 1 1 500

